.local/share/icons/Gruvbox-Plus-Dark/mimetypes/scalable/application-x-gettext-translation.svg

<svg width="256" height="256" viewBox="0 0 256 256" fill="none" xmlns="http://www.w3.org/2000/svg">
<g opacity="0.4" filter="url(#filter0_f)">
<path d="M55.0839 15.5636H155.608L216.009 75.7129L216.011 224.609C216.011 233.52 208.749 240.737 199.838 240.737H55.0838C46.1734 240.737 39 233.564 39 224.654V31.6474C39 22.737 46.1734 15.5636 55.0838 15.5636H55.0839Z" fill="#282828"/>
</g>
<path d="M55.0839 15H155.608L216.009 75.1493L216.011 224.045C216.011 232.956 208.749 240.174 199.838 240.174H55.0838C46.1734 240.174 39 233 39 224.09V31.0838C39 22.1734 46.1734 15 55.0838 15H55.0839Z" fill="#ebdbb2"/>
<g opacity="0.4">
<path fill-rule="evenodd" clip-rule="evenodd" d="M39.068 88.9434C38.818 84.3824 39.13 57.6944 42.193 55.0074V55.0054L56.664 69.4104H63.998V60.6504H78.666L87.466 69.4104V75.2504H80.131L71.331 84.0094V89.8474L77.199 95.6874H83.065V84.0094H96.268L105.068 92.7694L96.266 102.986L100.666 107.366H91.865L83.065 116.126H77.198L68.398 124.884V142.402L53.73 127.803H44.93L39.063 121.963V106.589C39.063 104.326 39.049 102.168 39.0355 100.097C39.0096 96.1091 38.9858 92.44 39.068 88.9434ZM60.255 46.7574C61.461 46.2374 82.406 45.9494 83.131 46.0074L83.065 54.8124H68.398L60.255 46.7574ZM147.602 88.3884V84.0084L152.002 79.6284V88.3884H147.602ZM193.071 174.519V165.365L198.939 159.921V174.52H193.071V174.519ZM132.935 46.0524H99.955C99.6642 46.0524 99.417 46.0616 99.1699 46.0709C98.9371 46.0797 98.7043 46.0884 98.435 46.0894L93.333 51.8924L102.133 60.6504V69.8044L112.401 81.0894H118.268V75.2494L127.068 66.4894V60.6494L132.935 54.8114V46.0524ZM125.601 78.1694H130.001L134.401 82.5494H125.601V78.1694ZM85.999 126.344H81.599L77.199 130.724H85.999V126.344ZM165.203 119.045L182.805 119.045L182.805 124.884L197.472 139.483H203.339L188.671 154.081L188.87 170.85L170.476 189.157L159.336 177.439V159.921L156.403 157.002V152.622L152.003 148.243H141.735L134.402 140.943V126.344L144.669 116.125H162.269L165.203 119.045ZM81.4438 209.079C81.2701 209.063 81.0965 209.047 80.91 209.034L80.909 209.035L78.665 206.635V187.658L83.064 183.278L83.104 170.19L71.33 159.922V145.322L77.198 139.482H91.866L97.733 145.322H109.467L115.333 151.162V162.84L110.933 167.22V171.598L102.133 180.358V186.198L83.065 203.717L83.093 209.153C82.9384 209.145 82.7575 209.143 82.5764 209.141C82.3887 209.139 82.2009 209.138 82.042 209.128C81.8312 209.116 81.638 209.098 81.445 209.079L81.4438 209.079ZM102.133 100.067L106.533 95.6874L110.934 100.067L109.467 101.527H108L106.533 100.067H102.133Z" fill="url(#paint0_linear)"/>
<path d="M215.073 121.964V106.59C215.073 105.953 215.078 104.991 215.085 103.777C215.119 97.4559 215.191 84.2773 214.756 74.2564L203.5 63.5714H197.471L188.671 72.3314L182.805 66.4914H165.204L156.404 75.2514V82.5494H165.204V78.1694H171.071V84.0094L168.136 86.9284L156.403 87.1254L152.003 91.3084H146.136V97.1484L141.735 101.528V110.285H150.535L156.403 104.446H162.27V107.366L168.136 113.206H171.071V110.285L165.204 104.446H171.071L176.936 110.285H184.27L179.87 105.906L184.27 101.527H188.671L193.071 105.907H188.671L184.271 110.285L188.591 114.585L188.671 119.045H182.805L200.406 136.563H203.338L206.272 133.644L212.139 127.804L206.272 121.964H215.073Z" fill="url(#paint1_linear)"/>
</g>
<path fill-rule="evenodd" clip-rule="evenodd" d="M155.609 22.9787H55.0839C50.58 22.9787 46.9787 26.5799 46.9787 31.0838V224.09C46.9787 228.594 50.5799 232.195 55.0838 232.195H199.838C204.371 232.195 208.032 228.521 208.032 224.046V75.1493L155.609 22.9787ZM155.608 15H55.0839C46.1735 15 39 22.1734 39 31.0838V224.09C39 233 46.1734 240.174 55.0838 240.174H199.838C208.749 240.174 216.011 232.956 216.011 224.045L216.009 75.1493L155.608 15Z" fill="url(#paint2_linear)"/>
<path d="M98.8539 168.023H81.1241L77.9418 177.095H68.0054L68 173.929L84.8259 132.104H95.6066L112.028 173.929L111.973 177.095H101.971L98.8539 168.023ZM96.1912 160.308L90.0215 142.719L83.8518 160.308H96.1912Z" fill="#282828" fill-opacity="0.141176"/>
<path d="M98.2679 165.008H81.5878L78.4167 174.049H68.3009L85.4883 130.172H94.304L111.587 174.049H101.471L98.2679 165.008ZM84.1564 157.686H95.6993L89.8961 141.262L84.1564 157.686Z" fill="url(#paint3_linear)"/>
<path d="M185.723 126.668C179.036 126.147 175.036 125.887 173.723 125.887C169.58 125.887 165.477 126.017 161.416 126.278L163.016 120.09C166.79 119.091 169.703 117.029 171.754 113.902C173.846 110.776 174.893 106.607 174.893 101.397C174.893 97.3152 174.298 93.798 173.108 90.8453C171.918 87.8492 170.216 85.5261 168 83.8761C165.826 82.226 163.262 81.401 160.308 81.401C155.426 81.401 151.611 83.0945 148.862 86.4814C146.114 89.8683 144.739 94.6882 144.739 100.941C144.739 105.587 145.785 109.604 147.878 112.991C149.97 116.334 152.78 118.657 156.308 119.96L154.278 126.147C152.431 126.061 150.565 125.974 148.678 125.887C146.831 125.8 144.985 125.757 143.139 125.757C141.252 125.757 139.385 125.8 137.539 125.887C135.693 125.93 133.827 125.995 131.939 126.082L131.509 125.366L133.293 119.178L149.785 120.285V119.699C145.56 118.049 142.216 115.531 139.755 112.144C137.334 108.713 136.124 104.805 136.124 100.42C136.124 95.8605 137.088 91.9743 139.016 88.7611C140.985 85.5478 143.775 83.0945 147.385 81.401C151.037 79.6641 155.406 78.7957 160.493 78.7957C167.959 78.7957 173.662 80.576 177.6 84.1366C181.539 87.6972 183.508 92.7776 183.508 99.3777C183.508 102.808 182.831 105.978 181.477 108.887C180.123 111.796 178.318 114.206 176.062 116.117C173.805 118.027 171.303 119.2 168.554 119.634L168.493 120.22L188 119.243L185.723 126.668Z" fill="#282828" fill-opacity="0.141176"/>
<path d="M185.723 123.503C179.036 122.982 175.036 122.721 173.723 122.721C169.58 122.721 165.477 122.852 161.416 123.112L163.016 116.925C166.79 115.926 169.703 113.863 171.754 110.737C173.846 107.611 174.893 103.442 174.893 98.2313C174.893 94.1497 174.298 90.6325 173.108 87.6798C171.918 84.6837 170.216 82.3606 168 80.7106C165.826 79.0605 163.262 78.2355 160.308 78.2355C155.426 78.2355 151.611 79.929 148.862 83.3159C146.114 86.7028 144.739 91.5226 144.739 97.7754C144.739 102.422 145.785 106.438 147.878 109.825C149.97 113.169 152.78 115.492 156.308 116.794L154.278 122.982C152.431 122.895 150.565 122.808 148.678 122.721C146.831 122.635 144.985 122.591 143.139 122.591C141.252 122.591 139.385 122.635 137.539 122.721C135.693 122.765 133.827 122.83 131.939 122.917L131.509 122.2L133.293 116.013L149.785 117.12V116.534C145.56 114.884 142.216 112.365 139.755 108.978C137.334 105.548 136.124 101.64 136.124 97.2544C136.124 92.695 137.088 88.8088 139.016 85.5955C140.985 82.3823 143.775 79.929 147.385 78.2355C151.037 76.4986 155.406 75.6302 160.493 75.6302C167.959 75.6302 173.662 77.4105 177.6 80.9711C181.539 84.5317 183.508 89.6121 183.508 96.2122C183.508 99.6426 182.831 102.812 181.477 105.722C180.123 108.631 178.318 111.041 176.062 112.951C173.805 114.862 171.303 116.034 168.554 116.469L168.493 117.055L188 116.078L185.723 123.503Z" fill="url(#paint4_linear)"/>
<path d="M109.53 98.2689L112.033 105.918L129.478 86.6965V82.048L104.122 74L104.203 78.4411L105.602 85.7247C83.4046 96.9096 74.5331 114.988 74.5331 115.813V120.462L88.6245 122.787C91.8119 109.312 99.6425 102.498 109.53 98.2689H109.53Z" fill="#3c3836" fill-opacity="0.141176"/>
<path d="M109.53 93.6204L112.033 101.269L129.478 82.048L104.122 74L105.602 81.0762C80.5874 93.6807 77.9765 104.718 74.5331 115.813L88.0417 118.203C91.2291 104.728 99.6425 97.8497 109.53 93.6204V93.6204Z" fill="url(#paint5_linear)"/>
<path d="M141.298 161.713L138.795 154.064L119.944 168.875L119.956 173.285L145.395 181.989L145.257 176.83L144.445 174.444C169.46 161.84 174.017 145.063 174.828 141.071L174.852 135.101L162.786 137.13C159.599 150.605 151.185 157.484 141.298 161.713H141.298Z" fill="#282828" fill-opacity="0.141914"/>
<path d="M139.874 157.323L137.371 149.674L119.926 168.896L145.282 176.944L143.802 169.868C168.817 157.263 171.427 146.226 174.871 135.13L161.362 132.741C158.175 146.215 149.761 153.094 139.874 157.323V157.323Z" fill="url(#paint6_linear)"/>
<path opacity="0.25" d="M155.608 17V61.2306C155.608 70.141 162.867 77.1605 171.777 77.1605L216.009 77.1493V75.1493L155.608 17Z" fill="#282828"/>
<path d="M155.608 15V59.2306C155.608 68.141 162.867 75.1605 171.777 75.1605L216.009 75.1493L155.608 15Z" fill="url(#paint7_linear)"/>
<defs>
<filter id="filter0_f" x="23.8778" y="0.441412" width="207.255" height="255.418" filterUnits="userSpaceOnUse" color-interpolation-filters="sRGB">
<feFlood flood-opacity="0" result="BackgroundImageFix"/>
<feBlend mode="normal" in="SourceGraphic" in2="BackgroundImageFix" result="shape"/>
<feGaussianBlur stdDeviation="7.5611" result="effect1_foregroundBlur"/>
</filter>
<linearGradient id="paint0_linear" x1="127.057" y1="46" x2="127.057" y2="209.156" gradientUnits="userSpaceOnUse">
<stop stop-color="#689d6a"/>
<stop offset="0.1" stop-color="#689d6a"/>
<stop offset="1" stop-color="#8ec07c"/>
</linearGradient>
<linearGradient id="paint1_linear" x1="127.057" y1="46" x2="127.057" y2="209.156" gradientUnits="userSpaceOnUse">
<stop stop-color="#689d6a"/>
<stop offset="0.1" stop-color="#689d6a"/>
<stop offset="1" stop-color="#8ec07c"/>
</linearGradient>
<linearGradient id="paint2_linear" x1="127.507" y1="15" x2="127.507" y2="240.178" gradientUnits="userSpaceOnUse">
<stop stop-color="#689d6a"/>
<stop offset="0.1" stop-color="#689d6a"/>
<stop offset="1" stop-color="#8ec07c"/>
</linearGradient>
<linearGradient id="paint3_linear" x1="68.3009" y1="130.172" x2="68.3009" y2="174.049" gradientUnits="userSpaceOnUse">
<stop offset="1e-07" stop-color="#504945"/>
<stop offset="1" stop-color="#3c3836"/>
</linearGradient>
<linearGradient id="paint4_linear" x1="131.509" y1="75.6302" x2="131.509" y2="123.503" gradientUnits="userSpaceOnUse">
<stop offset="1e-07" stop-color="#504945"/>
<stop offset="1" stop-color="#3c3836"/>
</linearGradient>
<linearGradient id="paint5_linear" x1="102.006" y1="74" x2="102.006" y2="118.204" gradientUnits="userSpaceOnUse">
<stop stop-color="#689d6a"/>
<stop offset="0.1" stop-color="#689d6a"/>
<stop offset="1" stop-color="#8ec07c"/>
</linearGradient>
<linearGradient id="paint6_linear" x1="147.399" y1="132.741" x2="147.399" y2="176.945" gradientUnits="userSpaceOnUse">
<stop stop-color="#689d6a"/>
<stop offset="0.1" stop-color="#689d6a"/>
<stop offset="1" stop-color="#8ec07c"/>
</linearGradient>
<linearGradient id="paint7_linear" x1="185.809" y1="15" x2="185.809" y2="75.1616" gradientUnits="userSpaceOnUse">
<stop stop-color="#689d6a"/>
<stop offset="0.1" stop-color="#689d6a"/>
<stop offset="1" stop-color="#8ec07c"/>
</linearGradient>
</defs>
</svg>

<svg width="256" height="256" fill="none" version="1.1" viewBox="0 0 256 256" xmlns="http://www.w3.org/2000/svg">
  <path d="m55.08 15h100.5l60.4 60.15 2e-3 148.9c0 8.911-7.262 16.13-16.17 16.13h-144.8c-8.91 0-16.08-7.174-16.08-16.08v-193c0-8.91 7.173-16.08 16.08-16.08h1e-4z" fill="#ebdbb2"/>
  <g fill="url(#paint0_linear)" opacity=".4">
    <path d="m39.07 88.94c-0.25-4.561 0.062-31.25 3.125-33.94v-2e-3l14.47 14.4h7.334v-8.76h14.67l8.8 8.76v5.84h-7.335l-8.8 8.759v5.838l5.868 5.84h5.866v-11.68h13.2l8.8 8.76-8.802 10.22 4.4 4.38h-8.801l-8.8 8.76h-5.867l-8.8 8.758v17.52l-14.67-14.6h-8.8l-5.867-5.84v-15.37c0-2.263-0.014-4.421-0.0275-6.492-0.0259-3.988-0.0497-7.657 0.0325-11.15zm21.19-42.19c1.206-0.52 22.15-0.808 22.88-0.75l-0.066 8.805h-14.67l-8.143-8.055zm87.35 41.63v-4.38l4.4-4.38v8.76h-4.4zm45.47 86.13v-9.154l5.868-5.444v14.6h-5.868v-1e-3zm-60.14-128.5h-32.98c-0.2908 0-0.538 0.0092-0.7851 0.0185-0.2328 0.0088-0.4656 0.0175-0.7349 0.0185l-5.102 5.803 8.8 8.758v9.154l10.27 11.28h5.867v-5.84l8.8-8.76v-5.84l5.867-5.838v-8.759zm-7.334 32.12h4.4l4.4 4.38h-8.8v-4.38zm-39.6 48.17h-4.4l-4.4 4.38h8.8v-4.38zm79.2-7.299h17.6v5.839l14.67 14.6h5.867l-14.67 14.6 0.199 16.77-18.39 18.31-11.14-11.72v-17.52l-2.933-2.919v-4.38l-4.4-4.379h-10.27l-7.333-7.3v-14.6l10.27-10.22h17.6l2.934 2.92zm-83.76 90.03c-0.1737-0.016-0.3473-0.032-0.5338-0.045l-1e-3 1e-3 -2.244-2.4v-18.98l4.399-4.38 0.04-13.09-11.77-10.27v-14.6l5.868-5.84h14.67l5.867 5.84h11.73l5.866 5.84v11.68l-4.4 4.38v4.378l-8.8 8.76v5.84l-19.07 17.52 0.028 5.436c-0.1546-8e-3 -0.3355-0.01-0.5166-0.012-0.1877-2e-3 -0.3755-3e-3 -0.5344-0.013-0.2108-0.012-0.404-0.03-0.597-0.049h-0.0012zm20.69-109 4.4-4.38 4.401 4.38-1.467 1.46h-1.467l-1.467-1.46h-4.4z" clip-rule="evenodd" fill-rule="evenodd"/>
    <path d="m215.1 122v-15.37c0-0.637 5e-3 -1.599 0.012-2.813 0.034-6.321 0.106-19.5-0.329-29.52l-11.26-10.68h-6.029l-8.8 8.76-5.866-5.84h-17.6l-8.8 8.76v7.298h8.8v-4.38h5.867v5.84l-2.935 2.919-11.73 0.197-4.4 4.183h-5.867v5.84l-4.401 4.38v8.757h8.8l5.868-5.839h5.867v2.92l5.866 5.84h2.935v-2.921l-5.867-5.839h5.867l5.865 5.839h7.334l-4.4-4.379 4.4-4.379h4.401l4.4 4.38h-4.4l-4.4 4.378 4.32 4.3 0.08 4.46h-5.866l17.6 17.52h2.932l2.934-2.919 5.867-5.84-5.867-5.84h8.801z"/>
  </g>
  <path d="m155.6 22.98h-100.5c-4.504 0-8.105 3.601-8.105 8.105v193c0 4.504 3.601 8.105 8.105 8.105h144.8c4.533 0 8.194-3.674 8.194-8.149v-148.9l-52.42-52.17zm-1e-3 -7.979h-100.5c-8.91 0-16.08 7.173-16.08 16.08v193c0 8.91 7.173 16.08 16.08 16.08h144.8c8.911 0 16.17-7.218 16.17-16.13l-2e-3 -148.9-60.4-60.15z" clip-rule="evenodd" fill="url(#paint2_linear)" fill-rule="evenodd"/>
  <path d="m98.85 168h-17.73l-3.182 9.072h-9.936l-0.0054-3.166 16.83-41.82h10.78l16.42 41.82-0.055 3.166h-10l-3.117-9.072zm-2.663-7.715-6.17-17.59-6.17 17.59h12.34z" fill="#282828" fill-opacity=".1412"/>
  <path d="m98.27 165h-16.68l-3.171 9.041h-10.12l17.19-43.88h8.816l17.28 43.88h-10.12l-3.203-9.041zm-14.11-7.322h11.54l-5.803-16.42-5.74 16.42z" fill="url(#paint3_linear)"/>
  <path d="m185.7 126.7c-6.687-0.521-10.69-0.781-12-0.781-4.143 0-8.246 0.13-12.31 0.391l1.6-6.188c3.774-0.999 6.687-3.061 8.738-6.188 2.092-3.126 3.139-7.295 3.139-12.5 0-4.082-0.595-7.599-1.785-10.55-1.19-2.996-2.892-5.319-5.108-6.969-2.174-1.65-4.738-2.475-7.692-2.475-4.882 0-8.697 1.694-11.45 5.08-2.748 3.387-4.123 8.207-4.123 14.46 0 4.646 1.046 8.663 3.139 12.05 2.092 3.343 4.902 5.666 8.43 6.969l-2.03 6.187c-1.847-0.086-3.713-0.173-5.6-0.26-1.847-0.087-3.693-0.13-5.539-0.13-1.887 0-3.754 0.043-5.6 0.13-1.846 0.043-3.712 0.108-5.6 0.195l-0.43-0.716 1.784-6.188 16.49 1.107v-0.586c-4.225-1.65-7.569-4.168-10.03-7.555-2.421-3.431-3.631-7.339-3.631-11.72 0-4.56 0.964-8.446 2.892-11.66 1.969-3.213 4.759-5.667 8.369-7.36 3.652-1.737 8.021-2.605 13.11-2.605 7.466 0 13.17 1.78 17.11 5.341 3.939 3.561 5.908 8.641 5.908 15.24 0 3.43-0.677 6.6-2.031 9.509s-3.159 5.319-5.415 7.23c-2.257 1.91-4.759 3.083-7.508 3.517l-0.061 0.586 19.51-0.977-2.277 7.425z" fill="#282828" fill-opacity=".1412"/>
  <path d="m185.7 123.5c-6.687-0.521-10.69-0.782-12-0.782-4.143 0-8.246 0.131-12.31 0.391l1.6-6.187c3.774-0.999 6.687-3.062 8.738-6.188 2.092-3.126 3.139-7.295 3.139-12.51 0-4.082-0.595-7.599-1.785-10.55-1.19-2.996-2.892-5.319-5.108-6.969-2.174-1.65-4.738-2.475-7.692-2.475-4.882 0-8.697 1.694-11.45 5.08-2.748 3.387-4.123 8.207-4.123 14.46 0 4.647 1.046 8.663 3.139 12.05 2.092 3.344 4.902 5.667 8.43 6.969l-2.03 6.188c-1.847-0.087-3.713-0.174-5.6-0.261-1.847-0.086-3.693-0.13-5.539-0.13-1.887 0-3.754 0.044-5.6 0.13-1.846 0.044-3.712 0.109-5.6 0.196l-0.43-0.717 1.784-6.187 16.49 1.107v-0.586c-4.225-1.65-7.569-4.169-10.03-7.556-2.421-3.43-3.631-7.338-3.631-11.72 0-4.559 0.964-8.446 2.892-11.66 1.969-3.213 4.759-5.666 8.369-7.36 3.652-1.737 8.021-2.605 13.11-2.605 7.466 0 13.17 1.78 17.11 5.341 3.939 3.561 5.908 8.641 5.908 15.24 0 3.43-0.677 6.6-2.031 9.51-1.354 2.909-3.159 5.319-5.415 7.229-2.257 1.911-4.759 3.083-7.508 3.518l-0.061 0.586 19.51-0.977-2.277 7.425z" fill="url(#paint4_linear)"/>
  <path d="m109.5 98.27 2.503 7.649 17.44-19.22v-4.648l-25.36-8.048 0.081 4.441 1.399 7.284c-22.2 11.18-31.07 29.26-31.07 30.09v4.649l14.09 2.325c3.187-13.48 11.02-20.29 20.91-24.52z" fill="#3c3836" fill-opacity=".1412"/>
  <path d="m109.5 93.62 2.503 7.649 17.44-19.22-25.36-8.048 1.48 7.076c-25.01 12.6-27.63 23.64-31.07 34.74l13.51 2.39c3.187-13.48 11.6-20.35 21.49-24.58z" fill="url(#paint5_linear)"/>
  <path d="m141.3 161.7-2.503-7.649-18.85 14.81 0.012 4.41 25.44 8.704-0.138-5.159-0.812-2.386c25.02-12.6 29.57-29.38 30.38-33.37l0.024-5.97-12.07 2.029c-3.187 13.48-11.6 20.35-21.49 24.58z" fill="#282828" fill-opacity=".1419"/>
  <path d="m139.9 157.3-2.503-7.649-17.44 19.22 25.36 8.048-1.48-7.076c25.02-12.6 27.62-23.64 31.07-34.74l-13.51-2.389c-3.187 13.47-11.6 20.35-21.49 24.58z" fill="url(#paint6_linear)"/>
  <path d="m155.6 17v44.23c0 8.91 7.259 15.93 16.17 15.93l44.23-0.0112v-2l-60.4-58.15z" fill="#282828" opacity=".25"/>
  <path d="m155.6 15v44.23c0 8.91 7.259 15.93 16.17 15.93l44.23-0.0112-60.4-60.15z" fill="url(#paint7_linear)"/>
  <defs>
    <linearGradient id="paint0_linear" x1="127.1" x2="127.1" y1="46" y2="209.2" gradientUnits="userSpaceOnUse">
      <stop stop-color="#689d6a" offset="0"/>
      <stop stop-color="#689d6a" offset=".1"/>
      <stop stop-color="#8ec07c" offset="1"/>
    </linearGradient>
    <linearGradient id="paint2_linear" x1="127.5" x2="127.5" y1="15" y2="240.2" gradientUnits="userSpaceOnUse">
      <stop stop-color="#689d6a" offset="0"/>
      <stop stop-color="#689d6a" offset=".1"/>
      <stop stop-color="#8ec07c" offset="1"/>
    </linearGradient>
    <linearGradient id="paint3_linear" x1="68.3" x2="68.3" y1="130.2" y2="174" gradientUnits="userSpaceOnUse">
      <stop stop-color="#504945" offset="1e-7"/>
      <stop stop-color="#3c3836" offset="1"/>
    </linearGradient>
    <linearGradient id="paint4_linear" x1="131.5" x2="131.5" y1="75.63" y2="123.5" gradientUnits="userSpaceOnUse">
      <stop stop-color="#504945" offset="1e-7"/>
      <stop stop-color="#3c3836" offset="1"/>
    </linearGradient>
    <linearGradient id="paint5_linear" x1="102" x2="102" y1="74" y2="118.2" gradientUnits="userSpaceOnUse">
      <stop stop-color="#689d6a" offset="0"/>
      <stop stop-color="#689d6a" offset=".1"/>
      <stop stop-color="#8ec07c" offset="1"/>
    </linearGradient>
    <linearGradient id="paint6_linear" x1="147.4" x2="147.4" y1="132.7" y2="176.9" gradientUnits="userSpaceOnUse">
      <stop stop-color="#689d6a" offset="0"/>
      <stop stop-color="#689d6a" offset=".1"/>
      <stop stop-color="#8ec07c" offset="1"/>
    </linearGradient>
    <linearGradient id="paint7_linear" x1="185.8" x2="185.8" y1="15" y2="75.16" gradientUnits="userSpaceOnUse">
      <stop stop-color="#689d6a" offset="0"/>
      <stop stop-color="#689d6a" offset=".1"/>
      <stop stop-color="#8ec07c" offset="1"/>
    </linearGradient>
  </defs>
</svg>
